X:2413
L:1/8
M:4/4
K:D
|: D2 FA D2 FA | B2 AF A2 Bd | D2 FA D2 FA | GAFG EGFE | D2 FA D2 FA | B2 AF d3 c | BcdB AFEG | 
 FDDC D2 :: dc | B3 A FAEG | FDDC D2 dc | B3 A FADE | FEED E2 dc | B3 A FAdA | B2 AF E2 dc | 
 BcdB AFEG | FDDC D2 :|

